X:11
T: ICH HAB MEIN SACH AUF NICHTS GESTELLT
N: F0045
O: Europa, Mitteleuropa, Deutschland
R: Trink - Lied
M: 4/4
L: 1/8
K: D
A,2 | D2C2D2E2 | F3ED2F2 | E4z2
A,2 | E2D2E2F2 | G3FE2E2 | F4z2
F2 | F3FF2E2 | D2C2D2
B,2 | E3EE2D2 | C2B,B,C2
A,2 | F3ED2C2 | B,2B,2D2
B,2 | A,2D2C2E2 | D2z4

